src/32x32/places/folder-gruvbox-mix-blue-mail.svg

<?xml version="1.0" encoding="UTF-8"?>
<svg width="32" height="32" version="1" xmlns="http://www.w3.org/2000/svg">
 <rect x="2" y="11" width="28" height="18" rx="1.4" ry="1.4" opacity=".2"/>
 <path d="m2 22.6c0 0.776 0.6244 1.4 1.4 1.4h25.2c0.776 0 1.4-0.624 1.4-1.4v-15.2c0-0.7756-0.624-1.4-1.4-1.4h-12.6c-2.1 0-2.8-3-4.9-3h-7.7c-0.7756 0-1.4 0.6244-1.4 1.4" fill="#266b79"/>
 <rect x="2" y="9" width="28" height="18" rx="1.4" ry="1.4" opacity=".2"/>
 <rect x="4" y="8" width="24" height="11" rx="1.4" ry="1.4" fill="#dadec0"/>
 <rect x="2" y="10" width="28" height="18" rx="1.4" ry="1.4" fill="#80aa9e"/>
 <path d="m3.4004 3c-0.7756 0-1.4004 0.6248-1.4004 1.4004v1c0-0.7756 0.6248-1.4004 1.4004-1.4004h7.6996c2.1 0 2.8 3 4.9 3h12.6c0.775 0 1.4 0.6248 1.4 1.4004v-1c0-0.7756-0.625-1.4004-1.4-1.4004h-12.6c-2.1 0-2.8-3-4.9-3z" fill="#dadec0" opacity=".1"/>
 <path d="m16 13c-3.313 0-6 2.687-6 6 0 3.314 2.687 6 6 6h3.75s0.703-0.301 0.75-1.051c0-0.75-0.75-0.949-0.75-0.949h-3.75c-0.195-1e-3 -0.389-0.017-0.582-0.047-0.7-0.079-1.256-0.299-1.676-0.652l-6e-3 -4e-3c-1.086-0.746-1.736-1.979-1.736-3.297 0-2.209 1.791-4 4-4s4 1.791 4 4c0 0.454-0.092 0.745-0.24 1.002-4e-3 0-7e-3 -2e-3 -0.01-2e-3h-0.934c0.112-0.314 0.184-0.648 0.184-1 0-1.657-1.343-3-3-3-1.656 0-3 1.343-3 3s1.343 3 3 3h3.75c0.542-0.05 0.923-0.371 1.27-0.576 0.762-0.544 0.98-1.31 0.98-2.424 0-3.314-2.686-6-6-6zm0 5c0.552 0 1 0.448 1 1s-0.448 1-1 1-1-0.448-1-1 0.448-1 1-1z" fill="#374141"/>
</svg>

<svg xmlns="http://www.w3.org/2000/svg" width="32" height="32" version="1">
 <rect style="opacity:0.2" width="28" height="18" x="2" y="11" rx="1.4" ry="1.4"/>
 <path style="fill:#266b79" d="M 2,22.6 C 2,23.376 2.6244,24 3.4,24 H 28.6 C 29.376,24 30,23.376 30,22.6 V 7.4 C 30,6.6244 29.376,6 28.6,6 H 16 C 13.9,6 13.2,3 11.1,3 H 3.4 C 2.6244,3 2,3.6244 2,4.4"/>
 <rect style="opacity:0.2" width="28" height="18" x="2" y="9" rx="1.4" ry="1.4"/>
 <rect style="fill:#dadec0" width="24" height="11" x="4" y="8" rx="1.4" ry="1.4"/>
 <rect style="fill:#80aa9e" width="28" height="18" x="2" y="10" rx="1.4" ry="1.4"/>
 <path style="opacity:0.1;fill:#dadec0" d="M 3.4004,3 C 2.6248,3 2,3.6248 2,4.4004 V 5.4004 C 2,4.6248 2.6248,4 3.4004,4 H 11.1 C 13.2,4 13.9,7 16,7 H 28.6 C 29.375,7 30,7.6248 30,8.4004 V 7.4004 C 30,6.6248 29.375,6 28.6,6 H 16 C 13.9,6 13.2,3 11.1,3 Z"/>
 <path style="fill:#374141" d="M 16,13 C 12.687,13 10,15.687 10,19 10,22.314 12.687,25 16,25 H 19.75 C 19.75,25 20.453,24.699 20.5,23.949 20.5,23.199 19.75,23 19.75,23 H 16 C 15.805,22.999 15.611,22.983 15.418,22.953 14.718,22.874 14.162,22.654 13.742,22.301 L 13.736,22.297 C 12.65,21.551 12,20.318 12,19 12,16.791 13.791,15 16,15 18.209,15 20,16.791 20,19 20,19.454 19.908,19.745 19.76,20.002 19.756,20.002 19.753,20 19.75,20 H 18.816 C 18.928,19.686 19,19.352 19,19 19,17.343 17.657,16 16,16 14.344,16 13,17.343 13,19 13,20.657 14.343,22 16,22 H 19.75 C 20.292,21.95 20.673,21.629 21.02,21.424 21.782,20.88 22,20.114 22,19 22,15.686 19.314,13 16,13 Z M 16,18 C 16.552,18 17,18.448 17,19 17,19.552 16.552,20 16,20 15.448,20 15,19.552 15,19 15,18.448 15.448,18 16,18 Z"/>
</svg>
